X:39
T:Men of Wrexham's Hornpipe
M:C
L:1/8
Q:160
C:Trad.
R:Hornpipe
K:D
D2 | A2 d2 dA FA | G2 B2 B2 dB | AF AF BA GF | EF GF
E4 | A2 d2 dA FA | G2 B2 B2 dB | AF AF BG E2 | D2 D
2 D2 :||: FG | AF AF A2 dA | dB dB GB dB | AF AF BA GF | EF GF E
4 | AF AF A2 dA | BG BG B2 dB | AF AF BG E2 | D2 D2 D2 :
||
